X:685
T: Trip to Clonee
C: BB
L: 1/8
M: 4/4
R: reel
Q: 1/4=175
K: Em
A|"Em"Beed BE ~E2|"G"GB"D"AF "EM"EDEF|"G"GBBd "C"gece|"G"dgdB "D"AdcA|
"Em"Beed "Bm"Bdef|"Em"(3gfe "D"fd "Em"efge|"G"dBBd "D7"cAFD|\
"Em"GE"D"FD "Em"E3 :|
B|"Em"edBe gbge|"Bm"dBAF "Em"GE ~E2|"G"GB ~B2 "D7"Acef|"Em"geBd e2 ed|
"G"BG ~G2 "Am"cA ~A2|"D"defa "G"gB ~B2|"AM"cAAc "G"BAGD|"Em"(3EFG "D"FD "Em"E3 :|
